X: 170
T:The Cocktail
M:2/2
L:1/8
R:Reel
Z:Rob Greenway
K:D
DF~F2 D2fe|dF~F2 AFEF|DF~F2 DFed|cA~A2 EFGE:|!
A~A2 eA~A2|eA~A2 BAGB|A~A2 eA~A2|gedB GABG|!
A~A2 eA~A2|eA~A2 BAGB|A~A2 eaag|fgec dAFE||!
<end>
<start>
